X:1
T: Charlie Stewart
C:
R:Jig
Q:180
K:A
M:6/8
L:1/16
d2|c2e2e2 A2c2e2|d2f2a2 e2c2A2|d2e2f2 e2c2A2|G2B2B2 B4d2|c2e2e2 e2f2g2|a2g2f2 e2c2B2|fga2f2 e2c2A2|B2A2A2 A4d2|
c2e2e2 A2c2e2|d2f2a2 e2c2A2|d2e2f2 e2c2A2|G2B2B2 B4d2|c2e2e2 e2f2g2|a2g2f2 e2c2B2|fga2f2 e2c2A2|B2A2A2 A4d2|
c2A2A2 e2A2A2|fga2f2 e2c2A2|c2A2A2 e2A2A2|G2B2B2 B4d2|c2A2A2 e2A2A2|fga2f2 e2c2A2|a2g2f2 e2a2c2|B2A2A2 A4d2|
c2A2A2 e2A2A2|fga2f2 e2c2A2|c2A2A2 e2A2A2|G2B2B2 B4d2|c2A2A2 e2A2A2|fga2f2 e2c2A2|a2g2f2 e2a2c2|B2A2A2 A4||
